public/figma-home/neetrino-hero-brand.svg

<svg viewBox="0 0 1186 128" fill="none" xmlns="http://www.w3.org/2000/svg" aria-hidden="true">
  <path
    fill="#FFFCFC"
    d="M17.2796 28.6198C19.9796 26.0998 21.2396 23.0398 21.2396 19.4398V5.3998C21.2396 1.7998 23.0396 -0.000202179 26.6396 -0.000202179H123.66C127.26 -0.000202179 129.06 1.7998 129.06 5.3998V19.4398C129.06 23.0398 130.32 26.0998 133.02 28.6198L145.98 41.0398C148.86 43.7398 150.3 46.6198 150.3 50.0398V122.4C150.3 126 148.5 127.8 144.9 127.8H130.86C127.26 127.8 125.46 126 125.46 122.4V30.2398C125.46 26.6398 123.66 24.8398 120.06 24.8398H30.2396C26.6396 24.8398 24.8396 26.6398 24.8396 30.2398V122.4C24.8396 126 23.0396 127.8 19.4396 127.8H5.39961C1.79961 127.8 -0.00039041 126 -0.00039041 122.4V50.0398C-0.00039041 46.6198 1.43961 43.7398 4.31961 41.0398L17.2796 28.6198ZM185.855 46.6198C185.855 50.2198 187.655 52.0198 191.255 52.0198H299.975C303.575 52.0198 305.375 53.8198 305.375 57.4198V70.9198C305.375 74.5198 303.575 76.3198 299.975 76.3198H191.255C187.655 76.3198 185.855 78.1198 185.855 81.7198V97.5598C185.855 101.16 187.655 102.96 191.255 102.96H302.315C305.915 102.96 307.715 104.76 307.715 108.36V122.4C307.715 126 305.915 127.8 302.315 127.8H211.055C207.635 127.8 204.575 126.54 202.055 123.84L189.635 110.52C187.115 107.82 184.055 106.56 180.455 106.56H166.415C162.815 106.56 161.015 104.76 161.015 101.16V81.7198C161.015 78.1198 162.815 76.3198 166.415 76.3198H180.275C183.875 76.3198 185.675 74.5198 185.675 70.9198V57.4198C185.675 53.8198 183.875 52.0198 180.275 52.0198H166.415C162.815 52.0198 161.015 50.2198 161.015 46.6198V26.6398C161.015 23.0398 162.815 21.2398 166.415 21.2398H180.455C184.055 21.2398 187.115 19.9798 189.635 17.2798L202.055 3.9598C204.575 1.2598 207.635 -0.000202179 211.055 -0.000202179H302.315C305.915 -0.000202179 307.715 1.7998 307.715 5.3998V19.4398C307.715 23.0398 305.915 24.8398 302.315 24.8398H191.255C187.655 24.8398 185.855 26.6398 185.855 30.2398V46.6198ZM341.597 46.6198C341.597 50.2198 343.397 52.0198 346.997 52.0198H455.717C459.317 52.0198 461.117 53.8198 461.117 57.4198V70.9198C461.117 74.5198 459.317 76.3198 455.717 76.3198H346.997C343.397 76.3198 341.597 78.1198 341.597 81.7198V97.5598C341.597 101.16 343.397 102.96 346.997 102.96H458.057C461.657 102.96 463.457 104.76 463.457 108.36V122.4C463.457 126 461.657 127.8 458.057 127.8H366.797C363.377 127.8 360.317 126.54 357.797 123.84L345.377 110.52C342.857 107.82 339.797 106.56 336.197 106.56H322.157C318.557 106.56 316.757 104.76 316.757 101.16V81.7198C316.757 78.1198 318.557 76.3198 322.157 76.3198H336.017C339.617 76.3198 341.417 74.5198 341.417 70.9198V57.4198C341.417 53.8198 339.617 52.0198 336.017 52.0198H322.157C318.557 52.0198 316.757 50.2198 316.757 46.6198V26.6398C316.757 23.0398 318.557 21.2398 322.157 21.2398H336.197C339.797 21.2398 342.857 19.9798 345.377 17.2798L357.797 3.9598C360.317 1.2598 363.377 -0.000202179 366.797 -0.000202179H458.057C461.657 -0.000202179 463.457 1.7998 463.457 5.3998V19.4398C463.457 23.0398 461.657 24.8398 458.057 24.8398H346.997C343.397 24.8398 341.597 26.6398 341.597 30.2398V46.6198ZM533.34 30.2398C533.34 26.6398 531.54 24.8398 527.94 24.8398H474.3C470.7 24.8398 468.9 23.0398 468.9 19.4398V5.3998C468.9 1.7998 470.7 -0.000202179 474.3 -0.000202179H508.14C511.56 -0.000202179 514.62 1.2598 517.14 3.9598L529.56 17.2798C532.08 19.9798 535.14 21.2398 538.74 21.2398H552.78C556.38 21.2398 559.44 19.9798 561.96 17.2798L574.38 3.9598C576.9 1.2598 579.96 -0.000202179 583.38 -0.000202179H617.22C620.82 -0.000202179 622.62 1.7998 622.62 5.3998V19.4398C622.62 23.0398 620.82 24.8398 617.22 24.8398H563.58C559.98 24.8398 558.18 26.6398 558.18 30.2398V122.4C558.18 126 556.38 127.8 552.78 127.8H538.74C535.14 127.8 533.34 126 533.34 122.4V30.2398ZM629.824 88.9198C629.824 85.3198 631.624 83.5198 635.224 83.5198H649.084C652.684 83.5198 654.484 81.7198 654.484 78.1198V64.6198C654.484 61.0198 652.684 59.2198 649.084 59.2198H635.224C631.624 59.2198 629.824 57.4198 629.824 53.8198V26.6398C629.824 23.0398 631.624 21.2398 635.224 21.2398H649.264C652.864 21.2398 655.924 19.9798 658.444 17.2798L670.864 3.9598C673.384 1.2598 676.444 -0.000202179 679.864 -0.000202179H738.004C739.624 -0.000202179 741.424 0.539802 743.224 1.4398C745.024 2.3398 746.644 3.7798 747.904 5.3998L777.424 41.0398C778.684 42.4798 779.584 44.0998 780.484 45.7198C781.384 47.3398 781.744 49.1398 781.744 50.9398V53.8198C781.744 57.4198 779.944 59.2198 776.344 59.2198H762.124C758.524 59.2198 756.724 57.4198 756.724 53.8198V30.2398C756.724 26.6398 754.924 24.8398 751.324 24.8398H660.064C656.464 24.8398 654.664 26.6398 654.664 30.2398V53.8198C654.664 57.4198 656.464 59.2198 660.064 59.2198H734.944C738.544 59.2198 741.064 60.8398 742.684 64.0798L759.244 98.2798C760.144 99.8998 761.224 101.16 762.664 101.88C764.104 102.6 765.724 102.96 767.524 102.96H776.524C780.124 102.96 781.924 104.76 781.924 108.36V122.4C781.924 126 780.124 127.8 776.524 127.8H753.844C752.044 127.8 750.424 127.44 748.984 126.72C747.544 126 746.464 124.74 745.564 123.12L729.004 88.3798C727.384 85.1398 724.864 83.5198 721.264 83.5198H660.064C656.464 83.5198 654.664 85.3198 654.664 88.9198V122.4C654.664 126 652.864 127.8 649.264 127.8H635.224C631.624 127.8 629.824 126 629.824 122.4V88.9198ZM837.413 30.2398C837.413 26.6398 835.613 24.8398 832.013 24.8398H798.173C794.573 24.8398 792.773 23.0398 792.773 19.4398V5.3998C792.773 1.7998 794.573 -0.000202179 798.173 -0.000202179H812.213C815.633 -0.000202179 818.693 1.2598 821.213 3.9598L833.633 17.2798C836.153 19.9798 839.213 21.2398 842.813 21.2398H856.853C860.453 21.2398 862.253 23.0398 862.253 26.6398V122.4C862.253 126 860.453 127.8 856.853 127.8H842.813C839.213 127.8 837.413 126 837.413 122.4V30.2398ZM889.506 28.6198C892.206 26.0998 893.466 23.0398 893.466 19.4398V5.3998C893.466 1.7998 895.266 -0.000202179 898.866 -0.000202179H995.886C999.486 -0.000202179 1001.29 1.7998 1001.29 5.3998V19.4398C1001.29 23.0398 1002.55 26.0998 1005.25 28.6198L1018.21 41.0398C1021.09 43.7398 1022.53 46.6198 1022.53 50.0398V122.4C1022.53 126 1020.73 127.8 1017.13 127.8H1003.09C999.486 127.8 997.686 126 997.686 122.4V30.2398C997.686 26.6398 995.886 24.8398 992.286 24.8398H902.466C898.866 24.8398 897.066 26.6398 897.066 30.2398V122.4C897.066 126 895.266 127.8 891.666 127.8H877.626C874.026 127.8 872.226 126 872.226 122.4V50.0398C872.226 46.6198 873.666 43.7398 876.546 41.0398L889.506 28.6198ZM1054.48 5.3998C1054.48 1.7998 1056.28 -0.000202179 1059.88 -0.000202179H1134.94C1138.36 -0.000202179 1141.42 1.2598 1143.94 3.9598L1156.72 17.2798C1159.24 19.9798 1162.3 21.2398 1165.9 21.2398H1179.58C1183.36 21.2398 1185.34 23.0398 1185.34 26.6398V77.7598C1185.34 81.1798 1183.9 84.0598 1181.02 86.7598L1168.06 99.1798C1165.36 101.7 1164.1 104.76 1164.1 108.36V122.4C1164.1 126 1162.3 127.8 1158.7 127.8H1083.28C1079.86 127.8 1076.8 126.54 1074.28 123.84L1061.86 110.52C1059.34 107.82 1056.28 106.56 1052.68 106.56H1038.64C1035.04 106.56 1033.24 104.76 1033.24 101.16V50.0398C1033.24 46.6198 1034.5 43.5598 1037.2 41.0398L1050.52 28.6198C1053.22 26.0998 1054.48 23.0398 1054.48 19.4398V5.3998ZM1155.1 102.96C1158.7 102.96 1160.5 101.16 1160.5 97.5598V30.2398C1160.5 26.6398 1158.7 24.8398 1155.1 24.8398H1063.48C1059.88 24.8398 1058.08 26.6398 1058.08 30.2398V97.5598C1058.08 101.16 1059.88 102.96 1063.48 102.96H1155.1Z"
  />
</svg>

<svg xmlns="http://www.w3.org/2000/svg" fill="none" aria-hidden="true" viewBox="0 0 1186 128"><path fill="#fffcfc" d="M17.28 28.62c2.7-2.52 3.96-5.58 3.96-9.18V5.4q0-5.4 5.4-5.4h97.02q5.4 0 5.4 5.4v14.04c0 3.6 1.26 6.66 3.96 9.18l12.96 12.42c2.88 2.7 4.32 5.58 4.32 9v72.36q0 5.4-5.4 5.4h-14.04q-5.4 0-5.4-5.4V30.24q0-5.4-5.4-5.4H30.24q-5.4 0-5.4 5.4v92.16q0 5.4-5.4 5.4H5.4q-5.4 0-5.4-5.4V50.04c0-3.42 1.44-6.3 4.32-9zm168.575 18q0 5.4 5.4 5.4h108.72q5.4 0 5.4 5.4v13.5q0 5.4-5.4 5.4h-108.72q-5.4 0-5.4 5.4v15.84q0 5.4 5.4 5.4h111.06q5.4 0 5.4 5.4v14.04q0 5.4-5.4 5.4h-91.26c-3.42 0-6.48-1.26-9-3.96l-12.42-13.32c-2.52-2.7-5.58-3.96-9.18-3.96h-14.04q-5.4 0-5.4-5.4V81.72q0-5.4 5.4-5.4h13.86q5.4 0 5.4-5.4v-13.5q0-5.4-5.4-5.4h-13.86q-5.4 0-5.4-5.4V26.64q0-5.4 5.4-5.4h14.04c3.6 0 6.66-1.26 9.18-3.96l12.42-13.32c2.52-2.7 5.58-3.96 9-3.96h91.26q5.4 0 5.4 5.4v14.04q0 5.4-5.4 5.4h-111.06q-5.4 0-5.4 5.4zm155.742 0q0 5.4 5.4 5.4h108.72q5.4 0 5.4 5.4v13.5q0 5.4-5.4 5.4h-108.72q-5.4 0-5.4 5.4v15.84q0 5.4 5.4 5.4h111.06q5.4 0 5.4 5.4v14.04q0 5.4-5.4 5.4h-91.26c-3.42 0-6.48-1.26-9-3.96l-12.42-13.32c-2.52-2.7-5.58-3.96-9.18-3.96h-14.04q-5.4 0-5.4-5.4V81.72q0-5.4 5.4-5.4h13.86q5.4 0 5.4-5.4v-13.5q0-5.4-5.4-5.4h-13.86q-5.4 0-5.4-5.4V26.64q0-5.4 5.4-5.4h14.04c3.6 0 6.66-1.26 9.18-3.96l12.42-13.32c2.52-2.7 5.58-3.96 9-3.96h91.26q5.4 0 5.4 5.4v14.04q0 5.4-5.4 5.4h-111.06q-5.4 0-5.4 5.4zM533.34 30.24q0-5.4-5.4-5.4H474.3q-5.4 0-5.4-5.4V5.4q0-5.4 5.4-5.4h33.84c3.42 0 6.48 1.26 9 3.96l12.42 13.32c2.52 2.7 5.58 3.96 9.18 3.96h14.04c3.6 0 6.66-1.26 9.18-3.96l12.42-13.32c2.52-2.7 5.58-3.96 9-3.96h33.84q5.4 0 5.4 5.4v14.04q0 5.4-5.4 5.4h-53.64q-5.4 0-5.4 5.4v92.16q0 5.4-5.4 5.4h-14.04q-5.4 0-5.4-5.4zm96.484 58.68q0-5.4 5.4-5.4h13.86q5.4 0 5.4-5.4v-13.5q0-5.4-5.4-5.4h-13.86q-5.4 0-5.4-5.4V26.64q0-5.4 5.4-5.4h14.04c3.6 0 6.66-1.26 9.18-3.96l12.42-13.32c2.52-2.7 5.58-3.96 9-3.96h58.14c1.62 0 3.42.54 5.22 1.44s3.42 2.34 4.68 3.96l29.52 35.64c1.26 1.44 2.16 3.06 3.06 4.68s1.26 3.42 1.26 5.22v2.88q0 5.4-5.4 5.4h-14.22q-5.4 0-5.4-5.4V30.24q0-5.4-5.4-5.4h-91.26q-5.4 0-5.4 5.4v23.58q0 5.4 5.4 5.4h74.88c3.6 0 6.12 1.62 7.74 4.86l16.56 34.2c.9 1.62 1.98 2.88 3.42 3.6q2.16 1.08 4.86 1.08h9q5.4 0 5.4 5.4v14.04q0 5.4-5.4 5.4h-22.68q-2.7 0-4.86-1.08c-1.44-.72-2.52-1.98-3.42-3.6l-16.56-34.74c-1.62-3.24-4.14-4.86-7.74-4.86h-61.2q-5.4 0-5.4 5.4v33.48q0 5.4-5.4 5.4h-14.04q-5.4 0-5.4-5.4zm207.589-58.68q0-5.4-5.4-5.4h-33.84q-5.4 0-5.4-5.4V5.4q0-5.4 5.4-5.4h14.04c3.42 0 6.48 1.26 9 3.96l12.42 13.32c2.52 2.7 5.58 3.96 9.18 3.96h14.04q5.4 0 5.4 5.4v95.76q0 5.4-5.4 5.4h-14.04q-5.4 0-5.4-5.4zm52.093-1.62c2.7-2.52 3.96-5.58 3.96-9.18V5.4q0-5.4 5.4-5.4h97.02q5.402 0 5.404 5.4v14.04c0 3.6 1.26 6.66 3.96 9.18l12.96 12.42c2.88 2.7 4.32 5.58 4.32 9v72.36q0 5.4-5.4 5.4h-14.04q-5.405 0-5.404-5.4V30.24q0-5.4-5.4-5.4h-89.82q-5.4 0-5.4 5.4v92.16q0 5.4-5.4 5.4h-14.04q-5.4 0-5.4-5.4V50.04c0-3.42 1.44-6.3 4.32-9zM1054.48 5.4q0-5.4 5.4-5.4h75.06c3.42 0 6.48 1.26 9 3.96l12.78 13.32c2.52 2.7 5.58 3.96 9.18 3.96h13.68c3.78 0 5.76 1.8 5.76 5.4v51.12c0 3.42-1.44 6.3-4.32 9l-12.96 12.42c-2.7 2.52-3.96 5.58-3.96 9.18v14.04q0 5.4-5.4 5.4h-75.42c-3.42 0-6.48-1.26-9-3.96l-12.42-13.32c-2.52-2.7-5.58-3.96-9.18-3.96h-14.04q-5.4 0-5.4-5.4V50.04c0-3.42 1.26-6.48 3.96-9l13.32-12.42c2.7-2.52 3.96-5.58 3.96-9.18zm100.62 97.56q5.4 0 5.4-5.4V30.24q0-5.4-5.4-5.4h-91.62q-5.4 0-5.4 5.4v67.32q0 5.4 5.4 5.4z"/></svg>
